icons/svg/water/dam.svg

<?xml version="1.0" encoding="UTF-8" standalone="no"?>
<!-- Created with Inkscape (http://www.inkscape.org/) -->

<svg
   xmlns:dc="http://purl.org/dc/elements/1.1/"
   xmlns:cc="http://creativecommons.org/ns#"
   xmlns:rdf="http://www.w3.org/1999/02/22-rdf-syntax-ns#"
   xmlns:svg="http://www.w3.org/2000/svg"
   xmlns="http://www.w3.org/2000/svg"
   xmlns:xlink="http://www.w3.org/1999/xlink"
   xmlns:sodipodi="http://sodipodi.sourceforge.net/DTD/sodipodi-0.dtd"
   xmlns:inkscape="http://www.inkscape.org/namespaces/inkscape"
   version="1.0"
   width="580"
   height="580"
   id="svg2"
   sodipodi:version="0.32"
   inkscape:version="0.48.0 r9654"
   sodipodi:docname="transport_dam.svg"
   inkscape:output_extension="org.inkscape.output.svg.inkscape">
  <metadata
     id="metadata2975">
    <rdf:RDF>
      <cc:Work
         rdf:about="">
        <dc:format>image/svg+xml</dc:format>
        <dc:type
           rdf:resource="http://purl.org/dc/dcmitype/StillImage" />
        <cc:license
           rdf:resource="http://web.resource.org/cc/PublicDomain" />
        <dc:language>en</dc:language>
        <dc:title />
      </cc:Work>
    </rdf:RDF>
  </metadata>
  <sodipodi:namedview
     inkscape:window-height="1002"
     inkscape:window-width="1278"
     inkscape:pageshadow="2"
     inkscape:pageopacity="0.0"
     guidetolerance="10.0"
     gridtolerance="10.0"
     objecttolerance="10.0"
     borderopacity="1.0"
     bordercolor="#666666"
     pagecolor="#ffffff"
     id="base"
     inkscape:zoom="0.9216771"
     inkscape:cx="196.664"
     inkscape:cy="179.42334"
     inkscape:window-x="0"
     inkscape:window-y="24"
     inkscape:current-layer="svg2"
     showgrid="false"
     inkscape:window-maximized="0"
     showguides="true"
     inkscape:guide-bbox="true" />
  <defs
     id="defs4">
    <inkscape:perspective
       sodipodi:type="inkscape:persp3d"
       inkscape:vp_x="0 : 290 : 1"
       inkscape:vp_y="6.1230318e-14 : 1000 : 0"
       inkscape:vp_z="580 : 290 : 1"
       inkscape:persp3d-origin="290 : 193.33333 : 1"
       id="perspective2441" />
    <inkscape:perspective
       id="perspective3452"
       inkscape:persp3d-origin="30 : 20 : 1"
       inkscape:vp_z="60 : 30 : 1"
       inkscape:vp_y="0 : 1000 : 0"
       inkscape:vp_x="0 : 30 : 1"
       sodipodi:type="inkscape:persp3d" />
    <symbol
       viewBox="244.5 110 489 219.9"
       id="symbol-university">
      <path
         id="path4460"
         d="M79,43l57,119c0,0,21-96,104-96s124,106,124,106l43-133l82-17L0,17L79,43z" />
      <path
         id="path4462"
         d="M94,176l-21,39"
         stroke-width="20"
         stroke="#000000"
         fill="none" />
      <path
         id="path4464"
         d="M300,19c0,10.5-22.6,19-50.5,19S199,29.5,199,19s22.6-19,50.5-19S300,8.5,300,19z" />
      <path
         id="path4466"
         d="M112,216l-16-38L64,88c0,0-9-8-4-35s16-24,16-24"
         stroke-width="20"
         stroke="#000000"
         ill="none" />
    </symbol>
    <inkscape:perspective
       id="perspective4471"
       inkscape:persp3d-origin="372.04724 : 350.78739 : 1"
       inkscape:vp_z="744.09448 : 526.18109 : 1"
       inkscape:vp_y="0 : 1000 : 0"
       inkscape:vp_x="0 : 526.18109 : 1"
       sodipodi:type="inkscape:persp3d" />
    <inkscape:perspective
       id="perspective4668"
       inkscape:persp3d-origin="6 : 4 : 1"
       inkscape:vp_z="12 : 6 : 1"
       inkscape:vp_y="0 : 1000 : 0"
       inkscape:vp_x="0 : 6 : 1"
       sodipodi:type="inkscape:persp3d" />
    <inkscape:perspective
       id="perspective3826"
       inkscape:persp3d-origin="0.5 : 0.33333333 : 1"
       inkscape:vp_z="1 : 0.5 : 1"
       inkscape:vp_y="0 : 1000 : 0"
       inkscape:vp_x="0 : 0.5 : 1"
       sodipodi:type="inkscape:persp3d" />
    <inkscape:perspective
       id="perspective3855"
       inkscape:persp3d-origin="0.5 : 0.33333333 : 1"
       inkscape:vp_z="1 : 0.5 : 1"
       inkscape:vp_y="0 : 1000 : 0"
       inkscape:vp_x="0 : 0.5 : 1"
       sodipodi:type="inkscape:persp3d" />
    <inkscape:perspective
       id="perspective3909"
       inkscape:persp3d-origin="0.5 : 0.33333333 : 1"
       inkscape:vp_z="1 : 0.5 : 1"
       inkscape:vp_y="0 : 1000 : 0"
       inkscape:vp_x="0 : 0.5 : 1"
       sodipodi:type="inkscape:persp3d" />
    <inkscape:perspective
       id="perspective3950"
       inkscape:persp3d-origin="0.5 : 0.33333333 : 1"
       inkscape:vp_z="1 : 0.5 : 1"
       inkscape:vp_y="0 : 1000 : 0"
       inkscape:vp_x="0 : 0.5 : 1"
       sodipodi:type="inkscape:persp3d" />
    <inkscape:perspective
       id="perspective3972"
       inkscape:persp3d-origin="0.5 : 0.33333333 : 1"
       inkscape:vp_z="1 : 0.5 : 1"
       inkscape:vp_y="0 : 1000 : 0"
       inkscape:vp_x="0 : 0.5 : 1"
       sodipodi:type="inkscape:persp3d" />
    <inkscape:perspective
       id="perspective3994"
       inkscape:persp3d-origin="0.5 : 0.33333333 : 1"
       inkscape:vp_z="1 : 0.5 : 1"
       inkscape:vp_y="0 : 1000 : 0"
       inkscape:vp_x="0 : 0.5 : 1"
       sodipodi:type="inkscape:persp3d" />
    <inkscape:perspective
       id="perspective4016"
       inkscape:persp3d-origin="0.5 : 0.33333333 : 1"
       inkscape:vp_z="1 : 0.5 : 1"
       inkscape:vp_y="0 : 1000 : 0"
       inkscape:vp_x="0 : 0.5 : 1"
       sodipodi:type="inkscape:persp3d" />
    <inkscape:perspective
       id="perspective4837"
       inkscape:persp3d-origin="0.5 : 0.33333333 : 1"
       inkscape:vp_z="1 : 0.5 : 1"
       inkscape:vp_y="0 : 1000 : 0"
       inkscape:vp_x="0 : 0.5 : 1"
       sodipodi:type="inkscape:persp3d" />
    <inkscape:perspective
       id="perspective4971"
       inkscape:persp3d-origin="0.5 : 0.33333333 : 1"
       inkscape:vp_z="1 : 0.5 : 1"
       inkscape:vp_y="0 : 1000 : 0"
       inkscape:vp_x="0 : 0.5 : 1"
       sodipodi:type="inkscape:persp3d" />
    <inkscape:perspective
       id="perspective6216"
       inkscape:persp3d-origin="0.5 : 0.33333333 : 1"
       inkscape:vp_z="1 : 0.5 : 1"
       inkscape:vp_y="0 : 1000 : 0"
       inkscape:vp_x="0 : 0.5 : 1"
       sodipodi:type="inkscape:persp3d" />
    <inkscape:perspective
       id="perspective6764"
       inkscape:persp3d-origin="0.5 : 0.33333333 : 1"
       inkscape:vp_z="1 : 0.5 : 1"
       inkscape:vp_y="0 : 1000 : 0"
       inkscape:vp_x="0 : 0.5 : 1"
       sodipodi:type="inkscape:persp3d" />
    <inkscape:perspective
       id="perspective6817"
       inkscape:persp3d-origin="0.5 : 0.33333333 : 1"
       inkscape:vp_z="1 : 0.5 : 1"
       inkscape:vp_y="0 : 1000 : 0"
       inkscape:vp_x="0 : 0.5 : 1"
       sodipodi:type="inkscape:persp3d" />
    <radialGradient
       gradientUnits="userSpaceOnUse"
       gradientTransform="scale(0.79354273,1.2601716)"
       xlink:href="#linearGradient829"
       id="radialGradient874"
       cx="180.2453"
       cy="198.41902"
       r="101.58017"
       fx="180.2453"
       fy="198.41902" />
    <linearGradient
       id="linearGradient829">
      <stop
         style="stop-color: rgb(255, 255, 255); stop-opacity: 0.341667;"
         offset="0.0000000"
         id="stop830" />
      <stop
         style="stop-color: rgb(255, 255, 255); stop-opacity: 0;"
         offset="1.0000000"
         id="stop831" />
    </linearGradient>
    <radialGradient
       gradientUnits="userSpaceOnUse"
       gradientTransform="scale(1.007004,0.99304475)"
       xlink:href="#linearGradient829"
       id="radialGradient832"
       cx="360.85146"
       cy="167.47372"
       r="46.394721"
       fx="360.85146"
       fy="167.47372" />
    <linearGradient
       id="linearGradient6826">
      <stop
         style="stop-color: rgb(255, 255, 255); stop-opacity: 0.341667;"
         offset="0.0000000"
         id="stop6828" />
      <stop
         style="stop-color: rgb(255, 255, 255); stop-opacity: 0;"
         offset="1.0000000"
         id="stop6830" />
    </linearGradient>
    <linearGradient
       gradientUnits="userSpaceOnUse"
       gradientTransform="scale(0.74491357,1.3424376)"
       xlink:href="#linearGradient855"
       id="linearGradient850"
       x1="465.29425"
       y1="248.24467"
       x2="463.27056"
       y2="405.7687"
       spreadMethod="pad" />
    <linearGradient
       id="linearGradient855">
      <stop
         style="stop-color: rgb(255, 255, 255); stop-opacity: 0;"
         offset="0.0000000"
         id="stop856" />
      <stop
         style="stop-color: rgb(255, 166, 23); stop-opacity: 0.733333;"
         offset="1.0000000"
         id="stop857" />
    </linearGradient>
    <linearGradient
       gradientUnits="userSpaceOnUse"
       gradientTransform="scale(1.4586159,0.68558144)"
       xlink:href="#linearGradient855"
       id="linearGradient854"
       x1="157.80581"
       y1="120.96176"
       x2="155.40575"
       y2="231.63491" />
    <linearGradient
       id="linearGradient6837">
      <stop
         style="stop-color: rgb(255, 255, 255); stop-opacity: 0;"
         offset="0.0000000"
         id="stop6839" />
      <stop
         style="stop-color: rgb(255, 166, 23); stop-opacity: 0.733333;"
         offset="1.0000000"
         id="stop6841" />
    </linearGradient>
    <inkscape:perspective
       id="perspective6928"
       inkscape:persp3d-origin="0.5 : 0.33333333 : 1"
       inkscape:vp_z="1 : 0.5 : 1"
       inkscape:vp_y="0 : 1000 : 0"
       inkscape:vp_x="0 : 0.5 : 1"
       sodipodi:type="inkscape:persp3d" />
    <inkscape:perspective
       id="perspective10781"
       inkscape:persp3d-origin="0.5 : 0.33333333 : 1"
       inkscape:vp_z="1 : 0.5 : 1"
       inkscape:vp_y="0 : 1000 : 0"
       inkscape:vp_x="0 : 0.5 : 1"
       sodipodi:type="inkscape:persp3d" />
    <inkscape:perspective
       id="perspective10806"
       inkscape:persp3d-origin="0.5 : 0.33333333 : 1"
       inkscape:vp_z="1 : 0.5 : 1"
       inkscape:vp_y="0 : 1000 : 0"
       inkscape:vp_x="0 : 0.5 : 1"
       sodipodi:type="inkscape:persp3d" />
    <inkscape:perspective
       id="perspective10878"
       inkscape:persp3d-origin="0.5 : 0.33333333 : 1"
       inkscape:vp_z="1 : 0.5 : 1"
       inkscape:vp_y="0 : 1000 : 0"
       inkscape:vp_x="0 : 0.5 : 1"
       sodipodi:type="inkscape:persp3d" />
    <inkscape:perspective
       id="perspective10919"
       inkscape:persp3d-origin="0.5 : 0.33333333 : 1"
       inkscape:vp_z="1 : 0.5 : 1"
       inkscape:vp_y="0 : 1000 : 0"
       inkscape:vp_x="0 : 0.5 : 1"
       sodipodi:type="inkscape:persp3d" />
    <clipPath
       id="clipoutline2"
       clipPathUnits="userSpaceOnUse">
      <path
         inkscape:connector-curvature="0"
         d="m 55.8,12 0.76,0.16 c 8.84,-2.94 28.68,8.64 24.26,18.96 -1.12,1.62 -0.93,4.5 0.42,6.31 L 56.43,62.25 c -1.39,-1.39 -4.48,-1.36 -5.9,0 L 9.5,101.63 c -3.74,3.59 -0.8,6.64 0.78,8.25 l 7.36,7.36 c 1.61,1.6 5.86,3.76 8.88,0.56 L 65.24,76.99 c 1.35,-1.42 1.36,-4.47 0,-5.87 0,0 0.01,-0.02 0,-0.02 L 90.15,46.2 c 2.63,2.37 5.113827,2.574854 7.47,1.93 4.55057,-1.245432 7.08725,3.206643 9.81,6.46 l -1.23,1.21 c -1.82,1.84 -1.65,4.94 0.39,6.98 2.04,2.04 5.15,2.21 6.97,0.39 l 8.14,-8.13 c 1.82,-1.84 1.65,-4.94 -0.4,-6.97 -1.84,-1.85 -4.51,-2.09 -6.37,-0.77 -5.58,-6.26 -2.65,-7.2 -10.01,-15.35 L 91.13,17.86 C 81.2,8.12 68.3,8.13 55.8,12 z"
         id="outline2" />
    </clipPath>
  </defs>
  <g
     id="g1327">
    <path
       d="M 66.275,1.768 C 24.94,1.768 1.704,23.139 1.704,66.804 L 1.704,516.927 C 1.704,557.771 22.599,579.156 63.896,579.156 L 515.92,579.156 C 557.227,579.156 578.149,558.841 578.149,516.927 L 578.149,66.804 C 578.149,24.203 557.227,1.768 514.628,1.768 C 514.624,1.768 66.133,1.625 66.275,1.768 z "
       style="fill:#111;stroke:#eee;stroke-width:3.40799999"
       id="path1329" />
  </g>
  <g
     id="g3338"
     transform="matrix(1.3973279,-0.2437849,0.2437849,1.3973279,-185.07402,-56.183307)" />
  <rect
     id="rect2311"
     height="35.047276"
     width="178.95253"
     y="437.77142"
     x="32.725697"
     style="fill:#ffffff" />
  <rect
     id="rect2313"
     height="35.047276"
     width="178.95253"
     y="384.71979"
     x="32.725697"
     style="fill:#ffffff" />
  <rect
     id="rect2315"
     height="35.047276"
     width="178.95253"
     y="331.53909"
     x="32.725697"
     style="fill:#ffffff" />
  <rect
     id="rect2317"
     height="35.047276"
     width="178.95253"
     y="278.29584"
     x="32.725697"
     style="fill:#ffffff" />
  <path
     id="path2319"
     d="M 284.07932,100.11271 C 280.81166,92.360036 273.05897,86.849853 264.15299,86.849853 l -28.76823,0.128144 V 472.7543 H 371.66547 L 284.07932,100.11271 z"
     inkscape:connector-curvature="0"
     style="fill:#ffffff" />
  <rect
     id="rect2321"
     height="34.919132"
     width="178.95253"
     y="225.24422"
     x="32.725697"
     style="fill:#ffffff" />
  <rect
     id="rect2323"
     height="35.047276"
     width="178.95253"
     y="172.06548"
     x="32.725697"
     style="fill:#ffffff" />
  <rect
     id="rect2325"
     height="35.047276"
     width="178.95253"
     y="118.88478"
     x="32.725697"
     style="fill:#ffffff" />
  <path
     id="path2327"
     d="m 388.32414,442.25613 c 2.62695,0.51257 5.25388,0.76886 7.88083,0.76886 6.98382,0 13.64729,-1.60179 19.5419,-4.22874 6.15089,-2.88324 12.87843,-4.48503 20.11854,-4.48503 7.11197,0 13.90358,1.60179 20.05447,4.48503 5.89461,2.62695 12.62216,4.22874 19.5419,4.22874 6.91976,0 13.51915,-1.60179 19.5419,-4.22874 6.02275,-2.88324 12.87844,-4.48503 20.05447,-4.48503 7.17605,0 14.03173,1.60179 20.11856,4.48503 5.8946,2.62695 12.49399,4.22874 19.54189,4.22874 v 29.15266 c -6.98383,0 -13.64729,-1.47365 -19.54189,-4.10059 -6.1509,-2.88323 -13.00659,-4.48503 -20.11856,-4.48503 -7.11196,0 -14.03172,1.6018 -20.05447,4.48503 -6.02275,2.62694 -12.62214,4.10059 -19.5419,4.10059 -6.91974,0 -13.64729,-1.47365 -19.5419,-4.10059 -6.15089,-2.88323 -12.87843,-4.48503 -20.05447,-4.48503 -7.24011,0 -14.03173,1.6018 -20.11854,4.48503 -5.89461,2.62694 -12.494,4.10059 -19.5419,4.10059 -0.38443,0 -0.76886,0 -1.1533,0 l -6.72753,-29.92152 z"
     inkscape:connector-curvature="0"
     style="fill:#ffffff" />
  <path
     id="path2329"
     d="m 376.66307,385.04001 c 6.02275,2.62695 12.62214,4.22874 19.5419,4.22874 6.98382,0 13.64729,-1.60179 19.5419,-4.22874 6.15089,-2.88323 12.87843,-4.48502 20.11854,-4.48502 7.11197,0 13.90358,1.60179 20.05447,4.48502 5.89461,2.62695 12.62216,4.22874 19.5419,4.22874 6.91976,0 13.51915,-1.60179 19.5419,-4.22874 6.02275,-2.88323 12.87844,-4.48502 20.05447,-4.48502 7.17605,0 14.03173,1.60179 20.11856,4.48502 5.8946,2.62695 12.49399,4.22874 19.54189,4.22874 v 29.15267 c -6.98383,0 -13.64729,-1.47365 -19.54189,-4.1006 -6.1509,-2.88323 -13.00659,-4.48502 -20.11856,-4.48502 -7.11196,0 -14.03172,1.60179 -20.05447,4.48502 -6.02275,2.62695 -12.62214,4.1006 -19.5419,4.1006 -6.91974,0 -13.64729,-1.47365 -19.5419,-4.1006 -6.15089,-2.88323 -12.87843,-4.48502 -20.05447,-4.48502 -7.24011,0 -14.03173,1.60179 -20.11854,4.48502 -5.89461,2.62695 -12.494,4.1006 -19.5419,4.1006 -4.22874,0 -8.39341,-0.51258 -12.36586,-1.6018 l -7.17604,-31.77961 z"
     inkscape:connector-curvature="0"
     style="fill:#ffffff" />
</svg>

<svg width="580" height="580" viewBox="0 0 580 580" fill="none" xmlns="http://www.w3.org/2000/svg">
<g clip-path="url(#clip0)">
<path d="M66.275 1.76799C24.94 1.76799 1.70401 23.139 1.70401 66.804V516.927C1.70401 557.771 22.599 579.156 63.896 579.156H515.92C557.227 579.156 578.149 558.841 578.149 516.927V66.804C578.149 24.203 557.227 1.76799 514.628 1.76799C514.624 1.76799 66.133 1.62499 66.275 1.76799Z" fill="#111111" stroke="#EEEEEE" stroke-width="3.408"/>
<path d="M211.678 437.771H32.7257V472.819H211.678V437.771Z" fill="white"/>
<path d="M211.678 384.72H32.7257V419.767H211.678V384.72Z" fill="white"/>
<path d="M211.678 331.539H32.7257V366.586H211.678V331.539Z" fill="white"/>
<path d="M211.678 278.296H32.7257V313.343H211.678V278.296Z" fill="white"/>
<path d="M284.079 100.113C280.812 92.36 273.059 86.8499 264.153 86.8499L235.385 86.978V472.754H371.665L284.079 100.113Z" fill="white"/>
<path d="M211.678 225.244H32.7257V260.163H211.678V225.244Z" fill="white"/>
<path d="M211.678 172.065H32.7257V207.113H211.678V172.065Z" fill="white"/>
<path d="M211.678 118.885H32.7257V153.932H211.678V118.885Z" fill="white"/>
<path d="M388.324 442.256C390.951 442.769 393.578 443.025 396.205 443.025C403.189 443.025 409.852 441.423 415.747 438.796C421.898 435.913 428.625 434.311 435.865 434.311C442.977 434.311 449.769 435.913 455.92 438.796C461.814 441.423 468.542 443.025 475.462 443.025C482.382 443.025 488.981 441.423 495.004 438.796C501.026 435.913 507.882 434.311 515.058 434.311C522.234 434.311 529.09 435.913 535.177 438.796C541.071 441.423 547.671 443.025 554.719 443.025V472.178C547.735 472.178 541.071 470.704 535.177 468.077C529.026 465.194 522.17 463.592 515.058 463.592C507.946 463.592 501.026 465.194 495.004 468.077C488.981 470.704 482.382 472.178 475.462 472.178C468.542 472.178 461.814 470.704 455.92 468.077C449.769 465.194 443.041 463.592 435.865 463.592C428.625 463.592 421.834 465.194 415.747 468.077C409.852 470.704 403.253 472.178 396.205 472.178C395.82 472.178 395.436 472.178 395.052 472.178L388.324 442.256V442.256Z" fill="white"/>
<path d="M376.663 385.04C382.686 387.667 389.285 389.269 396.205 389.269C403.189 389.269 409.852 387.667 415.747 385.04C421.898 382.157 428.625 380.555 435.865 380.555C442.977 380.555 449.769 382.157 455.92 385.04C461.815 387.667 468.542 389.269 475.462 389.269C482.382 389.269 488.981 387.667 495.004 385.04C501.026 382.157 507.882 380.555 515.058 380.555C522.234 380.555 529.09 382.157 535.177 385.04C541.071 387.667 547.671 389.269 554.719 389.269V418.421C547.735 418.421 541.071 416.948 535.177 414.321C529.026 411.438 522.17 409.836 515.058 409.836C507.946 409.836 501.026 411.438 495.004 414.321C488.981 416.948 482.382 418.421 475.462 418.421C468.542 418.421 461.815 416.948 455.92 414.321C449.769 411.438 443.041 409.836 435.865 409.836C428.625 409.836 421.834 411.438 415.747 414.321C409.852 416.948 403.253 418.421 396.205 418.421C391.976 418.421 387.812 417.909 383.839 416.82L376.663 385.04Z" fill="white"/>
</g>
<defs>
<clipPath id="clip0">
<path d="M0 0H580V580H0V0Z" fill="white"/>
</clipPath>
</defs>
</svg>
